X:1
T:The Flying Dutchman
M:4/4
L:1/4
K:C
c/2-B/2| A G c E| C c A E| F E C C| C3| d| d3/2 B/2 G d| c3/2- B/2 AD/2-E/2|\
 F G B A| G3| d/2d/2| d B G d| c3/2 B/2 AD/2-E/2| F G B A| G3|E/2-G/2|\
 G G E C| F A c A| G E D D| C3||
